img/0-3.svg

<svg width="83" height="48" viewBox="0 0 83 48" fill="none" xmlns="http://www.w3.org/2000/svg">
<rect width="83" height="48" fill="#FBFBFB"/>
<path d="M48.4792 27.947H51.2826V29.007C51.2826 29.7601 51.45 30.3133 51.7847 30.6667C52.1194 31.02 52.668 31.1967 53.4304 31.1967H59.1905C59.953 31.1967 60.5016 31.02 60.8363 30.6667C61.171 30.3133 61.3384 29.7601 61.3384 29.007V27.4589C61.3384 26.6964 61.171 26.1432 60.8363 25.7992C60.5016 25.4551 59.953 25.2831 59.1905 25.2831H53.277V22.4937H59.1069C59.8042 22.4658 60.3017 22.2799 60.5992 21.9358C60.906 21.5825 61.0594 21.0432 61.0594 20.318V19.007C61.0594 18.2445 60.8874 17.6867 60.5434 17.3333C60.2087 16.98 59.6647 16.8033 58.9116 16.8033H53.7094C52.9562 16.8033 52.4123 16.98 52.0776 17.3333C51.7428 17.6867 51.5755 18.2445 51.5755 19.007V20.0669H48.7721V18.8675C48.7721 15.6225 50.39 14 53.6257 14H58.9953C60.641 14 61.8591 14.3998 62.6494 15.1994C63.449 15.9991 63.8488 17.2218 63.8488 18.8675V19.2301C63.8488 20.3552 63.6489 21.285 63.2491 22.0195C62.8586 22.7448 62.2868 23.2841 61.5336 23.6374C62.3798 23.8884 63.026 24.3905 63.4723 25.1437C63.9186 25.8968 64.1417 26.8963 64.1417 28.1423V29.1464C64.1417 32.3821 62.5239 34 59.2882 34H53.3468C50.1017 34 48.4792 32.3821 48.4792 29.1464V27.947Z" fill="#0C0C0C"/>
<path d="M40.5852 29.8298H44.7554V34H40.5852V29.8298Z" fill="#0C0C0C"/>
<path d="M35.7183 31.1409C35.7183 31.5314 35.6439 31.9033 35.4951 32.2566C35.3463 32.6007 35.1418 32.9028 34.8814 33.1632C34.6211 33.4235 34.3143 33.6281 33.9609 33.7768C33.6169 33.9256 33.2497 34 32.8591 34H22.8591C22.4686 34 22.0967 33.9256 21.7434 33.7768C21.3993 33.6281 21.0972 33.4235 20.8368 33.1632C20.5765 32.9028 20.3719 32.6007 20.2232 32.2566C20.0744 31.9033 20 31.5314 20 31.1409V16.8591C20 16.4686 20.0744 16.1013 20.2232 15.7573C20.3719 15.404 20.5765 15.1018 20.8368 14.8508C21.0972 14.5904 21.3993 14.3859 21.7434 14.2371C22.0967 14.079 22.4686 14 22.8591 14H32.8591C33.2497 14 33.6169 14.079 33.9609 14.2371C34.3143 14.3859 34.6211 14.5904 34.8814 14.8508C35.1418 15.1018 35.3463 15.404 35.4951 15.7573C35.6439 16.1013 35.7183 16.4686 35.7183 16.8591V31.1409ZM22.8591 16.8591V31.1409H32.8591V16.8591H22.8591Z" fill="#0C0C0C"/>
<path fill-rule="evenodd" clip-rule="evenodd" d="M35.7797 17.1178L23.826 33.3748L21.5625 31.7105L33.5162 15.4534L35.7797 17.1178Z" fill="#0C0C0C"/>
</svg>

<?xml version="1.0" encoding="UTF-8"?>
<svg id="Layer_1" xmlns="http://www.w3.org/2000/svg" version="1.1" viewBox="0 0 83 48">
  <!-- Generator: Adobe Illustrator 29.5.1, SVG Export Plug-In . SVG Version: 2.1.0 Build 141)  -->
  <defs>
    <style>
      .st0 {
        fill-rule: evenodd;
      }

      .st0, .st1 {
        fill: #121212;
      }

      .st2 {
        fill: #f7f7f7;
      }
    </style>
  </defs>
  <rect class="st2" y="0" width="83" height="48"/>
  <g>
    <path class="st1" d="M48.48,27.95h2.8v1.06c0,.75.17,1.31.5,1.66.33.35.88.53,1.65.53h5.76c.76,0,1.31-.18,1.65-.53.33-.35.5-.91.5-1.66v-1.55c0-.76-.17-1.32-.5-1.66-.33-.34-.88-.52-1.65-.52h-5.91v-2.79h5.83c.7-.03,1.19-.21,1.49-.56.31-.35.46-.89.46-1.62v-1.31c0-.76-.17-1.32-.52-1.67-.33-.35-.88-.53-1.63-.53h-5.2c-.75,0-1.3.18-1.63.53-.33.35-.5.91-.5,1.67v1.06h-2.8v-1.2c0-3.24,1.62-4.87,4.85-4.87h5.37c1.65,0,2.86.4,3.65,1.2.8.8,1.2,2.02,1.2,3.67v.36c0,1.13-.2,2.05-.6,2.79-.39.73-.96,1.26-1.72,1.62.85.25,1.49.75,1.94,1.51.45.75.67,1.75.67,3v1c0,3.24-1.62,4.85-4.85,4.85h-5.94c-3.25,0-4.87-1.62-4.87-4.85v-1.2Z"/>
    <path class="st1" d="M40.59,29.83h4.17v4.17h-4.17v-4.17Z"/>
    <path class="st1" d="M35.72,31.14c0,.39-.07.76-.22,1.12-.15.34-.35.65-.61.91s-.57.46-.92.61c-.34.15-.71.22-1.1.22h-10c-.39,0-.76-.07-1.12-.22-.34-.15-.65-.35-.91-.61-.26-.26-.46-.56-.61-.91-.15-.35-.22-.73-.22-1.12v-14.28c0-.39.07-.76.22-1.1.15-.35.35-.66.61-.91.26-.26.56-.46.91-.61.35-.16.73-.24,1.12-.24h10c.39,0,.76.08,1.1.24.35.15.66.35.92.61.26.25.46.55.61.91.15.34.22.71.22,1.1v14.28ZM22.86,16.86v14.28h10v-14.28h-10Z"/>
    <path class="st0" d="M35.78,17.12l-11.95,16.26-2.26-1.66,11.95-16.26,2.26,1.66Z"/>
  </g>
</svg>
